X:1
T:Certa fortiter
T:Certa fortiter
T:Nicolaï Listenius
T:Source : Musica---Nürnberg---J.Petreius---1541. Editor : André Vierendeels (12/08/15).
T:(fuga)
T:Notes : Original clef C3, Tenor ex Basso post semibrevem Editorial accidentals above the staff Original note values have been halved Lyrics supplied editorially after Thomas a Kempis, Ortulus Rosarum, ch. 14 Music slightly adapted by the editor
C:Nicolaï Listenius
%%score [ 1 2 ]
L:1/8
Q:1/4=80
M:4/4
K:C
V:1 treble-8 nm="Tenor" snm="T"
V:2 bass nm="Bass" snm="B"
V:1
 z4 C2 D2 | E2 F2 G2 A2 | G2 C2 G4 | z2 G2 F2 D2 | F2 F2 C4 | z2 G2 F2 D2 | F3 G A2 F2 | E4 z2 G2 | %8
w: Cer- *|* * * ta|for- ti- ter,|cer- * ta|for- ti- ter,|cer- * ta|for- * * ti-|ter, cer-|
 F2 D2 F2 F2 | C2 c2 B2 G2 | d2 d2 A4 | A2 c4 c2 | G4 z2 G2 | F2 G2 A2 G2 | E2 G4 FE | %15
w: * ta for- ti-|ter, o- ra fer-|ven- ter, o-|ra fer- ven-|ter, la-|* bo- ra _|di- li- * *|
 D3 E FG A2- |"^#" A2 G2 A2 F2 | E4 z2 G2 | E2 F2 G2 E2 | D2 E2 F2 D2 | C3 D EF G2- | %21
w: gen- * * * *||ter, stu-|de fre- quen- *|ter, ta- ce li-|ben- * * * *|
"^#" G2 F2 G2 E2 | C8- | C4 D4- | D8 |] %25
w: ||* ter.-||
V:2
 C,2 D,2 E,2 F,2 | G,2 A,2 G,2 C,2 | G,4 z2 G,2 | F,2 D,2 F,2 F,2 | C,4 z2 G,2 | F,2 D,2 F,3 G, | %6
w: Cer- * * *|* ta for- ti-|ter, cer-|* ta for- ti-|ter, cer-|* ta for- *|
 A,2 F,2 D,4 | z2 G,2 F,2 D,2 | F,2 F,2 C,2 C2 | A,2 G,2 D2 D2 | A,4 A,2 C2- | C2 C2 F,4 | %12
w: * ti- ter,|cer- * ta|for- ti- ter, o-|ra fer- ven- ter,|o- ra fer-|* ven- ter,|
 z2 G,2 F,2 G,2 | A,2 G,2 D,2 G,2- | G,2 F,E, D,3 E, | F,G, A,4 D,2 | E,4 A,2 D,2 | %17
w: la- * bo-|ra _ di- li-|* * * gen- *||* * ter,|
 z2 G,2 E,2 D,2 | G,2 A,2 D,2 E,2 | F,2 C,2 C,3 D, | E,F, G,4 D,2 | A,4 G,2 C,2 | C,3 D, E,3 D, | %23
w: stu- de fre-|quen- * ter, ta-|ce li- ben- *|* * * ter,|su- sti- ne|pa- * ti- *|
 C,2 B,,A,, G,,4- | G,,8 |] %25
w: en- ti- * a.|_|

